ghost/admin/public/assets/icons/event-comment--feature-attribution.svg

<svg width="24" height="24" viewBox="0 0 24 24" fill="none" xmlns="http://www.w3.org/2000/svg">
<path d="M11.9963 5C7.85832 5 4.5 7.80374 4.5 11.2653C4.5208 12.1411 4.7345 13.0001 5.12452 13.7757C5.51453 14.5512 6.07037 15.2224 6.74888 15.7372C6.82427 16.0165 6.84507 16.3088 6.81002 16.5967C6.77498 16.8845 6.68482 17.1621 6.54491 17.4127C6.405 17.6634 6.21821 17.8821 5.99567 18.0558C5.77314 18.2294 5.51941 18.3545 5.24963 18.4235C5.24963 18.4235 5.00975 18.7446 5.60195 18.862C7.99325 19.3163 9.93478 17.2957 9.93478 17.2957V17.2566C10.6135 17.4182 11.3076 17.4997 12.0037 17.4993C16.1417 17.4993 19.5 14.6956 19.5 11.234C19.5 7.77241 16.1342 5 11.9963 5Z" stroke="#6C747D" stroke-width="1.5" stroke-linecap="round" stroke-linejoin="round"/>
</svg>

<svg width="24" height="24" viewBox="0 0 24 24" fill="none" xmlns="http://www.w3.org/2000/svg">
  <title>event-comment--feature-attribution</title>
  <path d="M11.996 5C7.858 5 4.5 7.804 4.5 11.265c.02.876.234 1.735.625 2.51a5.63 5.63 0 0 0 1.624 1.962 2.255 2.255 0 0 1-.204 1.676c-.14.25-.327.47-.55.643a2.032 2.032 0 0 1-.745.367s-.24.322.352.439c2.391.454 4.333-1.566 4.333-1.566v-.04a8.909 8.909 0 0 0 2.069.243c4.138 0 7.496-2.803 7.496-6.265C19.5 7.772 16.134 5 11.996 5Z" stroke="#6C747D" stroke-width="1.5" stroke-linecap="round" stroke-linejoin="round"/>
</svg>
